X: 21443
M: 2/4
L: 1/16
K: C
V: 1 name="3"
ef |\
g2a^f g2e=f | g2a^f g2e=f | g2ab c'2ba | g2fe d2ef |\
g2a^f g2e=f | g2a^f g2e=f | g2e2 gfed | c2c2c2 H|]
dc |\


